X:6366
T:Swedish Schottisch
O:england
M:4/4
L:1/8
R:Schottische
N:Hester will know what it's calle
K:D
D2DF D2DF|EDEF D4|CDEF GECE|DEFG A2A2|D2DF D2DF|EDEF D4|CDEF GABc|d2d2d4
::dfed dcc2|BdcB BAA2|FAFD EGEC|D2F2A,4|dfed dcc2|BdcB BAA2|FAFD EFGA|d2
F2
D4||


